filter-settings-outline.svg

<svg fill="currentColor" viewBox="0 0 24 24"><path d="M15 22h2v2h-2m-4-2h2v2h-2m-4-2h2v2H7m8-4.12c.04.3-.06.62-.29.83a.996.996 0 0 1-1.41 0L9.29 16.7a.99.99 0 0 1-.29-.83v-5.12L4.21 4.62a1 1 0 0 1 .17-1.4c.19-.14.4-.22.62-.22h14c.22 0 .43.08.62.22a1 1 0 0 1 .17 1.4L15 10.75zM7.04 5 11 10.06v5.52l2 2v-7.53L16.96 5Z"/></svg>

<svg  viewBox="0 0 24 24" fill="currentColor"><path  d="M15 22H17V24H15M11 22H13V24H11M7 22H9V24H7M15 19.88C15.04 20.18 14.94 20.5 14.71 20.71C14.32 21.1 13.69 21.1 13.3 20.71L9.29 16.7C9.06 16.47 8.96 16.16 9 15.87V10.75L4.21 4.62C3.87 4.19 3.95 3.56 4.38 3.22C4.57 3.08 4.78 3 5 3H19C19.22 3 19.43 3.08 19.62 3.22C20.05 3.56 20.13 4.19 19.79 4.62L15 10.75V19.88M7.04 5L11 10.06V15.58L13 17.58V10.05L16.96 5Z"/></svg>
